T: Top Of The Maol, The
M: 2/4
L: 1/8
K: Edor
|:D|"Em"E2 EG/A/|BA FE|"D"D2 DF/G/|AF ED|
"Em"E2 EG/A/|BA FA|"G" B/c/d/B/ "D"AF|"Em" E3:|
|:A|"Em"Be ed/e/|fe dA|"G"Bc de|dB BA|
"Em"Be ed/e/|fe dA|"G" B/c/d/B/ "D"AF|"Em"E3:|
